icon-themes/sifr_svg/cmd/sc_deletecell.svg

<svg viewBox="0 0 16 16" xmlns="http://www.w3.org/2000/svg"><g fill="#555753"><path d="m0 0v9h1v7h7v-2h-1v-2h1v-1h-1v-2h1c0-.554.446-1 1-1v-2h1v2h1v-2h3v2h2v-7h-7v-1zm2 2h5v5h-5zm7 1h1v2h-1zm2 0h3v2h-3zm-8 6h3v2h-3zm7.1875 0c-.6627 0-1.1875.54899-1.1875 1.21875v4.5625c0 .66976.5248 1.21875 1.1875 1.21875h4.8125c.6627 0 1-.54899 1-1.21875v-4.5625c0-.66976-.33729-1.21875-1-1.21875zm-.1875 1h1l1.5 1.5 1.5-1.5h1v1l-1.5 1.5 1.5 1.5v1h-1l-1.5-1.5-1.5 1.5h-1v-1l1.5-1.5-1.5-1.5zm-7 2h3v2h-3z"/><path d="m2 2h5v5h-5z" opacity=".35"/></g></svg>

<svg xmlns="http://www.w3.org/2000/svg" viewBox="0 0 16 16">
  <path
     style="fill:#555753"
     d="M 0 0 L 0 9 L 1 9 L 1 16 L 8 16 L 8 14 L 7 14 L 7 12 L 8 12 L 8 11 L 7 11 L 7 9 L 8 9 C 8 8.446 8.446 8 9 8 L 9 6 L 10 6 L 10 8 L 11 8 L 11 6 L 14 6 L 14 8 L 16 8 L 16 1 L 9 1 L 9 0 L 0 0 z M 2 2 L 7 2 L 7 7 L 2 7 L 2 2 z M 9 3 L 10 3 L 10 5 L 9 5 L 9 3 z M 11 3 L 14 3 L 14 5 L 11 5 L 11 3 z M 3 9 L 6 9 L 6 11 L 3 11 L 3 9 z M 10.1875 9 C 9.5248 9 9 9.54899 9 10.21875 L 9 14.78125 C 9 15.45101 9.5248 16 10.1875 16 L 15 16 C 15.6627 16 16 15.45101 16 14.78125 L 16 10.21875 C 16 9.54899 15.66271 9 15 9 L 10.1875 9 z M 10 10 L 11 10 L 12.5 11.5 L 14 10 L 15 10 L 15 11 L 13.5 12.5 L 15 14 L 15 15 L 14 15 L 12.5 13.5 L 11 15 L 10 15 L 10 14 L 11.5 12.5 L 10 11 L 10 10 z M 3 12 L 6 12 L 6 14 L 3 14 L 3 12 z "
     id="path2" />
  <rect
     style="opacity:0.35;fill:#555753"
     width="5"
     height="5"
     x="2"
     y="2"/>
</svg>
